!!!COM: Schiørring, Niels
!!!CDT: 1743-1798
!!!OPR@@DA: Choral-Bog
!!!ONM: 24
!!!OTL@@DA: Gud give vor Konning
**kern	**fb	**kern	**kern	**kern	**kern	**kern	**kern	**kern
*part6	*part6	*part6	*part5	*part5	*part4	*part3	*part2	*part1
*staff8	*	*staff7	*staff6	*staff5	*staff4	*staff3	*staff2	*staff1
*clefF4	*	*clefC1	*clefF4	*clefC1	*clefF4	*clefC4	*clefC3	*clefC1
*mclefF4	*	*mclefG2	*mclefF4	*mclefG2	*mclefF4	*mclefGv2	*mclefG2	*mclefG2
*k[b-e-]	*	*k[b-e-]	*k[b-e-]	*k[b-e-]	*k[b-e-]	*k[b-e-]	*k[b-e-]	*k[b-e-]
*B-:	*	*B-:	*B-:	*B-:	*B-:	*B-:	*B-:	*B-:
*M4/4	*	*M4/4	*M4/4	*M4/4	*M4/4	*M4/4	*M4/4	*M4/4
*met(c)	*	*met(c)	*met(c)	*met(c)	*met(c)	*met(c)	*met(c)	*met(c)
*MM180	*	*MM180	*MM180	*MM180	*MM180	*MM180	*MM180	*MM180
*	*	*	*^	*^	*	*	*	*
2G	.	2g	2B-	2G	2g	2d	2G	2B-	2d	2g
=1	=1	=1	=1	=1	=1	=1	=1	=1	=1	=1
2E-	.	2g	2B-	2E-	2g	2e-	2E-	2B-	2e-	2g
2E-	2	4f	2A	2E-	4f	2c	4E-	4A	4c	4f
.	.	4f	.	.	4f	.	4E-	4A	4c	4f
=2	=2	=2	=2	=2	=2	=2	=2	=2	=2	=2
2D	6	2b-	2B-	2D	2b-	2f	2D	2B-	2f	2b-
2C	6	2cc	2A	2C	2cc	2e-	2C	2A	2e-	2cc
=3	=3	=3	=3	=3	=3	=3	=3	=3	=3	=3
2BB-	.	2dd	2B-	2BB-	2dd	2f	2BB-	2B-	2f	2dd
2D	6	2b-	[2B-	2D	2b-	2f	2D	2B-	2f	2b-
=4	=4	=4	=4	=4	=4	=4	=4	=4	=4	=4
2E-	6 5	2cc	2B-]	2E-	2cc	2g	2E-	2B-	2g	2cc
2F	.	2cc	2A	2F	2cc	2f	2F	2A	2f	2cc
=5	=5	=5	=5	=5	=5	=5	=5	=5	=5	=5
*	*	*	*	*	*	*^	*	*	*	*
2BB-	.	2dd	2B-	2BB-	2dd	2f	2b-/	2BB-	2B-	2f	2dd
*	*	*	*	*	*	*v	*v	*	*	*	*
2B-	.	2dd	2B-	2B-	2dd	2f	2B-	2B-	2f	2dd
=6	=6	=6	=6	=6	=6	=6	=6	=6	=6	=6
2A	5	2ee-	2c	2A	2ee-	2f	2A	2c	2f	2ee-
2B-	.	2dd	[2B-	2B-	2dd	2f	2B-	2B-	2f	2dd
=7	=7	=7	=7	=7	=7	=7	=7	=7	=7	=7
2E-	6 5	4cc	2B-]	2E-	4cc	2g	4E-	4B-	4g	4cc
.	.	4cc	.	.	4cc	.	4E-	4B-	4g	4cc
2F	.	2cc	4A	2F	2cc	2f	2F	2A	2f	2cc
.	.	.	4e-	.	.	.	.	.	.	.
=8	=8	=8	=8	=8	=8	=8	=8	=8	=8	=8
2BB-	.	2b-	1ryy	2BB-	2d	2f	2BB-	2d	2f	2b-
2B-	6	2dd	.	2B-	2d	2g	2B-	2d	2g	2dd
=9	=9	=9	=9	=9	=9	=9	=9	=9	=9	=9
2F#X	6	2dd	1d	2F#X	2dd	2a	2F#X	2d	2a	2dd
4G	.	2b-	.	4G	2b-	2g	(4G	2d	2g	2b-
4Fn	.	.	.	4Fn	.	.	4Fn)	.	.	.
=10	=10	=10	=10	=10	=10	=10	=10	=10	=10	=10
2E-	6	2cc	2c	2E-	2cc	2g	2E-	2c	2g	2cc
2D	nr6	2dd	2Bn	2D	2dd	2f	2D	2B	2f	2dd
=11	=11	=11	=11	=11	=11	=11	=11	=11	=11	=11
2C	.	1ee-	1c	2C	1ee-	2g	(2C	(2c	(2g	1ee-
2F	7	.	.	2F	.	2f	2F)	2A)	2f)	.
=12	=12	=12	=12	=12	=12	=12	=12	=12	=12	=12
*	*	*	*	*	*	*^	*	*	*	*
1BB-	.	1dd	1B-	1BB-	1dd	1f	1b-/	1BB-	1B-	1f	1dd
*	*	*	*	*	*	*v	*v	*	*	*	*
=13	=13	=13	=13	=13	=13	=13	=13	=13	=13	=13
2AA	6	2ff	1ryy	2AA	2f	2cc	2AA	2c	2f	2ff
2BB-	.	2dd	.	2BB-	2f	2b-	2BB-	2B-	2f	2dd
=14	=14	=14	=14	=14	=14	=14	=14	=14	=14	=14
2GG	6	1ee-	1ryy	2GG	2g	2b-	(2GG	(2B-	(2g	1ee-
2AA	5	.	.	2AA	2f	2cc	2AA)	2c)	2f)	.
=15	=15	=15	=15	=15	=15	=15	=15	=15	=15	=15
2BB-	.	2dd	1ryy	2BB-	2f	2b-	2BB-	2B-	2f	2dd
*	*	*	*	*	*	*	*^	*	*	*
2FF	.	2cc	.	2FF	2f	2a	2F	2FF	2A	2f	2cc
=16	=16	=16	=16	=16	=16	=16	=16	=16	=16	=16	=16
2BB-	.	2dd	1ryy	2BB-	2f	2b-	2BB-	1r	2B-	2f	2dd
2BBn	5	2dd	.	2BBn	2f	2g	2BBn	.	2G	2f	2dd
=17	=17	=17	=17	=17	=17	=17	=17	=17	=17	=17	=17
4C	.	2ee-	1ryy	4C	4e-	4g	(4C	1r	(4G	(4e-	2ee-
4F	7	.	.	4F	4f	4a	4F)	.	4A)	4c)	.
2BB-Xi	.	2dd	.	2BB-Xi	2f	2b-Xi	2BB-Xi	.	2B-	2B-	2dd
=18	=18	=18	=18	=18	=18	=18	=18	=18	=18	=18	=18
2AA	6	2ff	2ryy	2AA	2f	2cc	2AA	1r	2c	2f	2ff
*	*	*	*	*	*	*^	*	*	*	*	*
2BB-	.	2dd	[2B-	2BB-	2dd	2f	2dd/	2BB-	.	[2B-	2f	2dd
=19	=19	=19	=19	=19	=19	=19	=19	=19	=19	=19	=19	=19
2E-	6 5	1cc	2B-]	2E-	1cc	2g	1r	(2E-	1r	(2B-]	(2g	1cc
2F	.	.	2A	2F	.	2f	.	2F)	.	2A)	2f)	.
=20	=20	=20	=20	=20	=20	=20	=20	=20	=20	=20	=20	=20
1BB-	.	1b-	1B-	1BB-	1b-	1d	1f/	1BB-	1r	1F	1d	1b-
=21	=21	=21	=21	=21	=21	=21	=21	=21	=21	=21	=21	=21
2B-	.	2dd	2B-	2B-	2dd	2f	1r	2B-	1r	2B-	2f	2dd
2F#X	5	2cc	2A	2F#X	2cc	2d	.	2F#X	.	2A	2d	2cc
=22	=22	=22	=22	=22	=22	=22	=22	=22	=22	=22	=22	=22
2G	.	2b-	2G	2G	2b-	2.d	1r	2G	1r	2G	2d	2b-
4D	8 #	4.a	2F#X	2D	4.a	.	.	4D	.	4F#X	4d	4.a
4D	7	.	.	.	.	4c	.	4D	.	4F#	4c	.
.	.	8g	.	.	8g	.	.	.	.	.	.	8g
=23	=23	=23	=23	=23	=23	=23	=23	=23	=23	=23	=23	=23
2E-	.	2g	2G	2E-	2g	2B-	1r	2E-	1r	2G	2B-	2g
4D	#_	2f#X	2A	4D	2f#X	2d	.	(4D	.	2A	2d	2f#X
4C	.	.	.	4C	.	.	.	4C)	.	.	.	.
=24	=24	=24	=24	=24	=24	=24	=24	=24	=24	=24	=24	=24
2BB-	6	(2g	2B-	2BB-	2g	2d	1r	(2BB-	1r	(2B-	(2d	(2g
2AA	#6\	2a	2ryy	2AA	2c	2f#X	.	2AA	.	2c	2f#X	2a
=25	=25	=25	=25	=25	=25	=25	=25	=25	=25	=25	=25	=25
2GG	.	2b-)	1ryy	2GG	2d	2g	1r	2GG)	1r	2d)	2g)	2b-)
2C	.	2g	.	2C	[2c	2e-	.	2C	.	[2c	2e-	2g
=26	=26	=26	=26	=26	=26	=26	=26	=26	=26	=26	=26	=26
2GG	4	2g	4ryy	2GG	4c]	2d	1r	2GG	1r	(4c]	2d	2g
.	3	.	4ryy	.	4B-	.	.	.	.	4B-)	.	.
2AA	#6\	(2f#X	2A	2AA	(2f#X	2c	.	2AA	.	(2A	(2c	(2f#X
=27	=27	=27	=27	=27	=27	=27	=27	=27	=27	=27	=27	=27
2BB-	6	2g	2G	2BB-	2g	2d	1r	2BB-	1r	2G	2d	2g
2C	6	2a	2c	2C	2a	2e-	.	2C	.	2c	2e-	2a
=28	=28	=28	=28	=28	=28	=28	=28	=28	=28	=28	=28	=28
2D	6 4	2g	2B-	1D	2g	1d	1r	[2D	2D	2B-	1d)	2g
2DD	5 #	2f#X)	2A	.	2f#X)	.	.	2D]	2DD	2A)	.	2f#X)
*	*	*	*	*	*	*	*	*v	*v	*	*	*
=29	=29	=29	=29	=29	=29	=29	=29	=29	=29	=29	=29
2GG	.	2g	2G	2GG	2g	2B-	2d/	2GG	2B-	2d	2g
*	*	*	*v	*v	*	*	*	*	*	*	*
*	*	*	*	*v	*v	*v	*	*	*	*
==	==	==	==	==	==	==	==	==
*-	*-	*-	*-	*-	*-	*-	*-	*-
!!!system-decoration: {(s1,s2,s3,s4)}{(s5,s6)}{(s7,s8)}
!!!RDF**kern: i = editorial accidental
!!!RDF**kern: > = above
!!!RDF**kern: < = below
!!!AGN: chorale
!!!EED: Derek Remeš
!!!EED2: Victor Phan
!!!END: 2023/11/28
!!!ENC: Wolfgang Drescher
!!!EEV: 2023/12/08
!!!title: @{ONM}. @{OTL}